X:38
T:Susi's Waltz
R:Waltz
C:© 1988 David Cahn
M:3/4
L:1/8
G:Key: G
Z:abc-transcription Josh Larios <hades@elsewhere.org>, 2020.01.15
Z:abc-copyright This transcription is licensed under a Creative Commons Attribution-ShareAlike 4.0 International License.
K:G
[P:A]y0 |: D2 | "G"G3 B dB | "D"c2A2F2 | "G"G2B2d2 | "C"f4g2 | 
"G"d4 fg | "C"e4 fg | "G"dg dB GB | "D"A4D2 | 
"G"G3 B dB | "D"c2A2F2 | "G"G2B2d2 | "C"f4g2 | 
"G"d4 fg | "Am"e4 fg | "D7"ag fd cA | "G"G4 :|
[P:B]y|: GF | "Em"EG  BG AG | "C"EG cG AG | "A7"EG ^cG AG | "D7"FA d2 dc | 
"G7"Bc dB (3GF=F | "C"E3 G cd | "D7"ed-d2 F2 | "G"G4 :|

